X:1
B:Patterson, D W, 1979, The Shaker Spiritual, Princeton University Press, New Jersey
Z:Daniel W Patterson
F:http://www.folkinfo.org/songs
T:How My Soul is now Delighted
M:6/8     %Meter
L:1/8     %
K:G
E2 F G2 A |B2 A B2 e |E2 F G2 A |A G F {E}F3 |
w:How my soul is now de-light-ed With the food of Zi-*ons hill
E2 F G2 A |B2 A B2 e |E2 F G2 A |A G F E3 ::
w:To the feast we are in-vit-ed Faith-ful souls may have_ their fill.
D2 E F2 A |G2 E D2 F |E2 F G2 E |G2 B A3 |
w:Cleans'd from eve-ry vile pol-lu-tion See the vir-gin hap-py throng
G2 A B2 B |B A G F2 B |E2 F G2 E |A2 F E3 :|
w:Sing-ing praise with heav-en-ly mo-tion None but such can learn the song
